img/logo_htmlacademy.svg

<svg width="123" height="41" viewBox="0 0 123 41" fill="none" xmlns="http://www.w3.org/2000/svg">
<g clip-path="url(#clip0_53288_378)" filter="url(#filter0_d_53288_378)">
<path d="M4 12.8691V15.4429H6.45789V12.8691H4Z" fill="black"/>
<path d="M15.6466 4.52562C14.0863 4.52562 12.8253 5.23341 12.0345 6.26294H11.9491V0H9.91864V15.4429H11.9491V10.1451C11.9491 8.02172 13.2742 6.49888 15.2191 6.49888C17.0572 6.49888 18.1258 7.87158 18.1258 9.71614V15.4429H20.1563V9.35153C20.1563 6.41308 18.3396 4.52562 15.6466 4.52562Z" fill="black"/>
<path d="M30.6171 4.82696H25.8082V1.07349H23.7778V4.82696H21.8542V6.80022H23.7778V12.7843C23.7778 14.5002 24.7396 15.4439 26.4708 15.4439H30.6171V13.4492H26.8769C26.193 13.4492 25.8082 13.0632 25.8082 12.3983V6.80022H30.6171V4.82696Z" fill="black"/>
<path d="M45.1215 4.54712C43.497 4.54712 42.2576 5.34071 41.5736 6.60618H41.5095C40.8897 5.36217 39.7356 4.54712 38.154 4.54712C36.7434 4.54712 35.6746 5.29781 35.0336 6.3488H34.948V4.82596H33.0031V15.4429H35.0336V9.99504C35.0336 8.00032 36.0806 6.54184 37.6624 6.49894C39.1584 6.45604 40.0347 7.52847 40.0347 9.13708V15.4429H42.0652V9.82343C42.0652 7.44266 43.4758 6.49894 44.6941 6.49894C46.1688 6.49894 47.0452 7.52847 47.0452 9.13708V15.4429H49.0754V8.92261C49.0754 6.3488 47.6221 4.54712 45.1215 4.54712Z" fill="black"/>
<path d="M51.8271 12.6975C51.8271 14.4348 52.8103 15.4429 54.6269 15.4429H56.6359V13.4696H54.9261C54.2422 13.4696 53.8574 13.0835 53.8574 12.4186V0H51.8271V12.6975Z" fill="black"/>
<path d="M32.9048 19.6888H32.8192C32.027 18.6227 30.7425 17.8764 29.0295 17.8551C25.882 17.8124 23.6338 20.1365 23.6338 23.4202C23.6338 26.7252 25.9248 29.0494 29.008 29.0068C30.7637 28.9853 32.027 28.1965 32.8192 27.0663H32.9048V28.7081H34.9177V18.1536H32.9048V19.6888ZM29.3077 27.0451C27.081 27.0451 25.6679 25.4245 25.6679 23.4202C25.6679 21.4159 27.081 19.7954 29.3077 19.7954C31.4703 19.7954 32.8836 21.4159 32.8836 23.4202C32.8836 25.4033 31.4703 27.0451 29.3077 27.0451Z" fill="black"/>
<path d="M48.2095 21.9915C47.717 19.6034 45.5973 17.855 42.8139 17.855C39.4524 17.855 37.2042 20.307 37.2042 23.4201C37.2042 26.5331 39.4524 29.0067 42.8139 29.0067C45.5973 29.0067 47.717 27.2155 48.2095 24.8061H46.0898C45.6617 26.1494 44.3984 27.0662 42.8354 27.0662C40.6513 27.0662 39.2381 25.4244 39.2381 23.4201C39.2381 21.4158 40.6513 19.7953 42.8354 19.7953C44.4625 19.7953 45.6617 20.7548 46.0898 21.9915H48.2095Z" fill="black"/>
<path d="M59.0836 19.6888H58.998C58.2058 18.6227 56.921 17.8764 55.2081 17.8551C52.0607 17.8124 49.8125 20.1365 49.8125 23.4202C49.8125 26.7252 52.1036 29.0494 55.1866 29.0068C56.9425 28.9853 58.2058 28.1965 58.998 27.0663H59.0836V28.7081H61.0962V18.1536H59.0836V19.6888ZM55.4866 27.0451C53.2596 27.0451 51.8466 25.4245 51.8466 23.4202C51.8466 21.4159 53.2596 19.7954 55.4866 19.7954C57.6491 19.7954 59.0622 21.4159 59.0622 23.4202C59.0622 25.4033 57.6491 27.0451 55.4866 27.0451Z" fill="black"/>
<path d="M72.6538 19.7953H72.5682C71.776 18.6652 70.4483 17.8763 68.7568 17.855C65.6738 17.8123 63.3827 20.1365 63.3827 23.4415C63.3827 26.7251 65.6309 29.0493 68.7783 29.0067C70.4483 28.9853 71.776 28.239 72.5468 27.1729H72.6538V28.708H74.6665V13.356H72.6538V19.7953ZM69.0568 27.0662C66.8298 27.0662 65.4168 25.4458 65.4168 23.4415C65.4168 21.4372 66.8298 19.8166 69.0568 19.8166C71.2193 19.8166 72.6324 21.4585 72.6324 23.4415C72.6324 25.4458 71.2193 27.0662 69.0568 27.0662Z" fill="black"/>
<path d="M82.3297 17.855C79.0752 17.855 76.8483 20.3497 76.8483 23.4414C76.8483 26.4479 78.9467 29.0067 82.3724 29.0067C84.8561 29.0067 86.8475 27.6633 87.5541 25.4244H85.4342C84.9634 26.4267 83.8286 27.0662 82.4582 27.0662C80.5312 27.0662 79.1608 25.7869 79.0108 24.1451H87.7682C88.0464 20.6269 85.8412 17.855 82.3297 17.855ZM82.2868 19.7953C83.9783 19.7953 85.2416 20.8401 85.5627 22.354H79.0538C79.3534 20.8614 80.6168 19.7953 82.2868 19.7953Z" fill="black"/>
<path d="M102.198 17.8762C100.571 17.8762 99.3295 18.6651 98.6443 19.9232H98.5799C97.9591 18.6865 96.8029 17.8762 95.2184 17.8762C93.8054 17.8762 92.7347 18.6225 92.0924 19.6673H92.0068V18.1534H90.0583V28.7079H92.0924V23.2921C92.0924 21.3091 93.1417 19.8592 94.7261 19.8165C96.2247 19.7739 97.1028 20.84 97.1028 22.4392V28.7079H99.1368V23.1215C99.1368 20.7547 100.55 19.8165 101.77 19.8165C103.248 19.8165 104.125 20.84 104.125 22.4392V28.7079H106.16V22.226C106.16 19.6673 104.704 17.8762 102.198 17.8762Z" fill="black"/>
<path d="M113.441 27.0237L109.801 18.1536H107.553L112.392 29.7104L112.371 29.753C112.028 30.6272 111.643 30.947 110.701 30.947H108.196V32.9726H110.701C112.542 32.9726 113.527 32.1411 114.212 30.3499L118.88 18.1536H116.803L113.441 27.0237Z" fill="black"/>
</g>
<defs>
<filter id="filter0_d_53288_378" x="0" y="0" width="123" height="41" filterUnits="userSpaceOnUse" color-interpolation-filters="sRGB">
<feFlood flood-opacity="0" result="BackgroundImageFix"/>
<feColorMatrix in="SourceAlpha" type="matrix" values="0 0 0 0 0 0 0 0 0 0 0 0 0 0 0 0 0 0 127 0" result="hardAlpha"/>
<feOffset dy="4"/>
<feGaussianBlur stdDeviation="2"/>
<feComposite in2="hardAlpha" operator="out"/>
<feColorMatrix type="matrix" values="0 0 0 0 0 0 0 0 0 0 0 0 0 0 0 0 0 0 0.25 0"/>
<feBlend mode="normal" in2="BackgroundImageFix" result="effect1_dropShadow_53288_378"/>
<feBlend mode="normal" in="SourceGraphic" in2="effect1_dropShadow_53288_378" result="shape"/>
</filter>
<clipPath id="clip0_53288_378">
<rect width="115" height="33" fill="white" transform="translate(4)"/>
</clipPath>
</defs>
</svg>

<svg xmlns="http://www.w3.org/2000/svg" width="123" height="41" fill="none"><g fill="#000" clip-path="url(#a)" filter="url(#b)"><path d="M4 12.87v2.57h2.46v-2.57H4ZM15.65 4.53c-1.56 0-2.82.7-3.62 1.73h-.08V0H9.92v15.44h2.03v-5.3c0-2.12 1.32-3.64 3.27-3.64 1.84 0 2.9 1.37 2.9 3.22v5.72h2.04V9.35c0-2.94-1.82-4.82-4.51-4.82ZM30.62 4.83H25.8V1.07h-2.03v3.76h-1.93V6.8h1.93v5.98c0 1.72.96 2.66 2.7 2.66h4.14v-2h-3.74c-.69 0-1.07-.38-1.07-1.04V6.8h4.8V4.83ZM45.12 4.55c-1.62 0-2.86.8-3.55 2.06h-.06a3.6 3.6 0 0 0-3.36-2.06c-1.4 0-2.48.75-3.12 1.8h-.08V4.83H33v10.61h2.03V10c0-2 1.05-3.46 2.63-3.5 1.5-.04 2.37 1.03 2.37 2.64v6.3h2.04V9.82c0-2.38 1.4-3.32 2.62-3.32 1.48 0 2.36 1.03 2.36 2.64v6.3h2.03V8.92c0-2.57-1.46-4.37-3.96-4.37ZM51.83 12.7c0 1.73.98 2.74 2.8 2.74h2v-1.97h-1.7c-.69 0-1.07-.39-1.07-1.05V0h-2.03v12.7ZM32.9 19.69h-.08a4.64 4.64 0 0 0-3.8-1.83c-3.14-.05-5.39 2.28-5.39 5.56 0 3.3 2.3 5.63 5.38 5.59a4.53 4.53 0 0 0 3.8-1.94h.1v1.64h2V18.15h-2v1.54Zm-3.6 7.36a3.5 3.5 0 0 1-3.63-3.63c0-2 1.41-3.62 3.64-3.62a3.48 3.48 0 0 1 3.57 3.62 3.5 3.5 0 0 1-3.57 3.63ZM48.2 22c-.48-2.4-2.6-4.14-5.39-4.14a5.4 5.4 0 0 0-5.6 5.56 5.42 5.42 0 0 0 5.6 5.59c2.79 0 4.9-1.8 5.4-4.2h-2.12a3.32 3.32 0 0 1-3.25 2.26 3.5 3.5 0 0 1-3.6-3.65c0-2 1.41-3.62 3.6-3.62 1.62 0 2.82.95 3.25 2.2h2.12ZM59.08 19.69H59a4.64 4.64 0 0 0-3.8-1.83c-3.14-.05-5.39 2.28-5.39 5.56 0 3.3 2.3 5.63 5.38 5.59a4.53 4.53 0 0 0 3.8-1.94h.1v1.64h2V18.15h-2v1.54Zm-3.6 7.36a3.5 3.5 0 0 1-3.63-3.63c0-2 1.41-3.62 3.64-3.62a3.48 3.48 0 0 1 3.57 3.62 3.5 3.5 0 0 1-3.57 3.63ZM72.65 19.8h-.08a4.62 4.62 0 0 0-3.81-1.95c-3.09-.04-5.38 2.29-5.38 5.6 0 3.28 2.25 5.6 5.4 5.56 1.67-.02 3-.77 3.77-1.84h.1v1.54h2.02V13.36h-2.02v6.44Zm-3.6 7.27a3.5 3.5 0 0 1-3.63-3.63c0-2 1.41-3.62 3.64-3.62a3.5 3.5 0 0 1 3.57 3.62c0 2-1.41 3.63-3.57 3.63ZM82.33 17.86a5.4 5.4 0 0 0-5.48 5.58c0 3 2.1 5.57 5.52 5.57 2.49 0 4.48-1.35 5.18-3.59h-2.12c-.47 1-1.6 1.65-2.97 1.65-1.93 0-3.3-1.28-3.45-2.92h8.76c.28-3.52-1.93-6.3-5.44-6.3Zm-.04 1.94a3.2 3.2 0 0 1 3.27 2.55h-6.5a3.18 3.18 0 0 1 3.23-2.55ZM102.2 17.88c-1.63 0-2.87.79-3.56 2.04h-.06a3.6 3.6 0 0 0-3.36-2.04 3.6 3.6 0 0 0-3.13 1.79h-.08v-1.52h-1.95v10.56h2.03v-5.42c0-1.98 1.05-3.43 2.64-3.47 1.5-.05 2.37 1.02 2.37 2.62v6.27h2.04v-5.59c0-2.37 1.41-3.3 2.63-3.3 1.48 0 2.36 1.02 2.36 2.62v6.27h2.03v-6.48c0-2.56-1.46-4.35-3.96-4.35ZM113.44 27.02l-3.64-8.87h-2.25l4.84 11.56-.02.04c-.34.88-.73 1.2-1.67 1.2h-2.5v2.02h2.5c1.84 0 2.83-.83 3.51-2.62l4.67-12.2h-2.08l-3.36 8.87Z"/></g><defs><clipPath id="a"><path fill="#fff" d="M4 0h115v33H4z"/></clipPath><filter id="b" width="123" height="41" x="0" y="0" color-interpolation-filters="sRGB" filterUnits="userSpaceOnUse"><feFlood flood-opacity="0" result="BackgroundImageFix"/><feColorMatrix in="SourceAlpha" result="hardAlpha" values="0 0 0 0 0 0 0 0 0 0 0 0 0 0 0 0 0 0 127 0"/><feOffset dy="4"/><feGaussianBlur stdDeviation="2"/><feComposite in2="hardAlpha" operator="out"/><feColorMatrix values="0 0 0 0 0 0 0 0 0 0 0 0 0 0 0 0 0 0 0.25 0"/><feBlend in2="BackgroundImageFix" result="effect1_dropShadow_53288_378"/><feBlend in="SourceGraphic" in2="effect1_dropShadow_53288_378" result="shape"/></filter></defs></svg>
